X: 1
P: John Howatt's Reel
C: New England/Cape Breton
C: a.p.b. Howie MacDonald, attrib. to H. Dunlop
C: Arr. T. Traub 2-12-2004
R: reel
M: 4/4
L: 1/8
K: D
|: fg|"D"a2 fd "A"g2 ec|"D"d2 AG FDDF|"Em"E2 FG ABcd|"A"eAfA g2 fg|"D"a2 fd "A"g2 ec|
"D"d2 AG "Bm"FDDF|"Em"E2 FG ABcd|"A"eABc d2 :||: A2|"D"defg a2 fa|"Em"gfed "A"ceAc|
"D"defg adfd|"Em"gba^g "A"a2 fg|"D"abaf "Bm"gfed|"Em"eAfA "A"GFEG|"D"F2 AF "G"G2 BG|"A"Adce "D"d2 :|
